archdroid-icon-theme/Archdroid-Red/places/scalable/folder-arch.svg

<?xml version="1.0" encoding="UTF-8" standalone="no"?>
<svg
   xmlns:dc="http://purl.org/dc/elements/1.1/"
   xmlns:cc="http://creativecommons.org/ns#"
   xmlns:rdf="http://www.w3.org/1999/02/22-rdf-syntax-ns#"
   xmlns:svg="http://www.w3.org/2000/svg"
   xmlns="http://www.w3.org/2000/svg"
   xmlns:sodipodi="http://sodipodi.sourceforge.net/DTD/sodipodi-0.dtd"
   xmlns:inkscape="http://www.inkscape.org/namespaces/inkscape"
   fill="#F44336"
   width="48"
   height="48"
   viewBox="0 0 48 48"
   id="svg2"
   version="1.1"
   inkscape:version="0.91 r13725"
   sodipodi:docname="folder-arch.svg">
  <metadata
     id="metadata10">
    <rdf:RDF>
      <cc:Work
         rdf:about="">
        <dc:format>image/svg+xml</dc:format>
        <dc:type
           rdf:resource="http://purl.org/dc/dcmitype/StillImage" />
        <dc:title />
      </cc:Work>
    </rdf:RDF>
  </metadata>
  <defs
     id="defs8" />
  <sodipodi:namedview
     pagecolor="#ffffff"
     bordercolor="#666666"
     borderopacity="1"
     objecttolerance="10"
     gridtolerance="10"
     guidetolerance="10"
     inkscape:pageopacity="0"
     inkscape:pageshadow="2"
     inkscape:window-width="1366"
     inkscape:window-height="713"
     id="namedview6"
     showgrid="false"
     inkscape:zoom="9.8333333"
     inkscape:cx="12.059894"
     inkscape:cy="25.180769"
     inkscape:window-x="0"
     inkscape:window-y="30"
     inkscape:window-maximized="1"
     inkscape:current-layer="svg2"
     inkscape:snap-bbox="true"
     inkscape:bbox-paths="true"
     inkscape:bbox-nodes="true" />
  <path
     d="M 8 8 C 5.79 8 4.0195312 9.79 4.0195312 12 L 4 36 C 4 38.21 5.79 40 8 40 L 40 40 C 42.21 40 44 38.21 44 36 L 44 16 C 44 13.79 42.21 12 40 12 L 24 12 L 20 8 L 8 8 z M 29 17 C 29.014502 17.034033 29.024732 17.056178 29.039062 17.089844 C 29.366395 17.858797 29.651515 18.529008 29.927734 19.177734 C 29.931849 19.187393 29.935341 19.199336 29.939453 19.208984 C 29.974307 19.290763 30.016036 19.387591 30.050781 19.46875 C 30.121843 19.632167 30.222359 19.866893 30.289062 20.019531 C 31.012309 21.687759 31.812993 23.413438 33.320312 26.34375 C 33.386142 26.472149 33.46937 26.632049 33.539062 26.767578 C 34.344335 28.324978 35.320568 30.174415 36.607422 32.570312 C 35.931784 32.16465 35.064127 31.800895 33.853516 31.486328 C 35.614804 32.390338 36.476866 33.225572 37.304688 33.867188 C 37.830232 34.841712 38.383442 35.864873 39 37 C 35.873564 35.195052 33.440588 34.072122 31.175781 33.628906 C 31.251226 33.287662 31.295188 32.919627 31.304688 32.537109 C 31.354984 30.506329 30.380324 28.774003 29.128906 28.667969 C 27.877488 28.561935 26.821784 30.123518 26.771484 32.154297 L 26.767578 32.253906 C 26.763789 32.730272 26.816112 33.189112 26.914062 33.611328 C 24.624617 34.042056 22.168961 35.170503 19 37 C 20.962073 33.474553 22.407885 30.824313 23.554688 28.673828 C 24.354807 27.17302 25.000095 25.926628 25.529297 24.871094 C 25.796298 24.338471 26.071238 23.792414 26.289062 23.337891 C 26.291059 23.339569 26.292922 23.342072 26.294922 23.34375 C 26.412951 23.44282 26.548269 23.538924 26.681641 23.636719 C 26.734799 23.675733 26.780121 23.715064 26.835938 23.753906 C 26.888586 23.790498 26.952678 23.826832 27.007812 23.863281 C 27.158107 23.962803 27.30821 24.063457 27.478516 24.162109 C 27.479846 24.162879 27.48109 24.163293 27.482422 24.164062 C 27.715303 24.298839 27.966842 24.43269 28.242188 24.566406 C 28.518531 24.700487 28.817856 24.833082 29.142578 24.966797 C 28.842757 24.757029 28.572038 24.55294 28.324219 24.355469 C 28.32227 24.353915 28.320305 24.353116 28.318359 24.351562 C 27.572962 23.757081 27.04199 23.219346 26.587891 22.738281 C 26.58534 22.735579 26.580671 22.733167 26.578125 22.730469 C 27.569268 20.612767 28.109779 19.182582 29 17 z "
     id="path3382" />
</svg>

<svg xmlns="http://www.w3.org/2000/svg" fill="#F44336" viewBox="0 0 48 48"><path d="m8 8c-2.21 0-3.98 1.79-3.98 4l-.02 24c0 2.21 1.79 4 4 4h32c2.21 0 4-1.79 4-4v-20c0-2.21-1.79-4-4-4h-16l-4-4h-12m21 9c.015.034.025.056.039.09.327.769.612 1.439.889 2.088.004.01.008.022.012.031.035.082.077.179.111.26.071.163.172.398.238.551.723 1.668 1.524 3.394 3.03 6.324.066.128.149.288.219.424.805 1.557 1.782 3.407 3.068 5.803-.676-.406-1.543-.769-2.754-1.084 1.761.904 2.623 1.739 3.451 2.381.526.975 1.079 1.998 1.695 3.133-3.126-1.805-5.559-2.928-7.824-3.371.075-.341.119-.709.129-1.092.05-2.031-.924-3.763-2.176-3.869-1.251-.106-2.307 1.456-2.357 3.486l-.004.1c-.004.476.049.935.146 1.357-2.289.431-4.745 1.559-7.914 3.389 1.962-3.525 3.408-6.176 4.555-8.326.8-1.501 1.445-2.747 1.975-3.803.267-.533.542-1.079.76-1.533.002.002.004.004.006.006.118.099.253.195.387.293.053.039.098.078.154.117.053.037.117.073.172.109.15.1.3.2.471.299.001.001.003.001.004.002.233.135.484.269.76.402.276.134.576.267.9.4-.3-.21-.571-.414-.818-.611-.002-.002-.004-.002-.006-.004-.745-.594-1.276-1.132-1.73-1.613-.003-.003-.007-.005-.01-.008.991-2.118 1.532-3.548 2.422-5.73"/></svg>
